svg/archive_check_outline.svg

<svg xmlns="http://www.w3.org/2000/svg" viewBox="0 0 24 24"><path d="M21 3H3v6h18zm-2 4H5V5h14zm-4.5 4c.28 0 .5.22.5.5V13H9v-1.5c0-.28.22-.5.5-.5zm3.5 2.09V10h2v3.09c-.33-.05-.66-.09-1-.09s-.67.04-1 .09M13 19c0 .7.13 1.37.35 2H4V10h2v9zm9.5-1.75L17.75 22 15 19l1.16-1.16 1.59 1.59 3.59-3.59z"/></svg>

<svg xmlns="http://www.w3.org/2000/svg" id="mdi-archive-check-outline" viewBox="0 0 24 24"><path d="M21 3H3V9H21V3M19 7H5V5H19V7M14.5 11C14.78 11 15 11.22 15 11.5V13H9V11.5C9 11.22 9.22 11 9.5 11H14.5M18 13.09V10H20V13.09C19.67 13.04 19.34 13 19 13C18.66 13 18.33 13.04 18 13.09M13 19C13 19.7 13.13 20.37 13.35 21H4V10H6V19H13M22.5 17.25L17.75 22L15 19L16.16 17.84L17.75 19.43L21.34 15.84L22.5 17.25Z" /></svg>
